contents/docs/_media/posthog-logo-svg.svg

<svg xmlns="http://www.w3.org/2000/svg" width="158" height="191" fill="none" viewBox="0 0 158 191"><path stroke="#37352F" stroke-width="4" d="M23.0157 181.238L6.3622 168.55L20.4173 156.211L4 133.279L20.4173 122.453L4 95.0981L23.0157 90.6747L11.3228 63.3193H27.9764L20.4173 33.0538L41.6772 37.4772L45.1024 14.3125L58.3307 26.6515L67.8976 5L79.5906 22.2281L91.4016 5L98.252 24.4398L123.291 22.2281L113.843 37.4772L131.205 43.5303L121.402 54.3561L145.26 63.3193L131.205 75.3091L151.402 82.4099L136.165 95.0981L151.402 111.279L138.055 123.618L154 137.819L138.055 151.322L151.402 164.36L136.165 177.513"/><path stroke="#37352F" stroke-width="8" d="M24.1904 189.481C15.6134 135.612 14.5443 27.8716 78.884 27.8716"/><path stroke="#37352F" stroke-width="8" d="M133.577 189.365C142.154 135.495 143.224 27.7554 78.8839 27.7554"/><path stroke="#37352F" stroke-width="4" d="M63.4429 104.613C63.6836 107.245 66.389 112.508 75.285 112.508"/><circle cx="59.96" cy="86.734" r="7.198" fill="#37352F"/><ellipse cx="59.844" cy="85.109" fill="#fff" rx="3.599" ry="3.483"/><circle cx="86.198" cy="86.734" r="7.198" fill="#37352F"/><ellipse cx="86.082" cy="85.109" fill="#fff" rx="3.599" ry="3.483"/></svg>

<svg fill="none" viewBox="0 0 158 191"><path stroke="#37352F" stroke-width="4" d="M23.016 181.238L6.362 168.55l14.055-12.339L4 133.279l16.417-10.826L4 95.098l19.016-4.423-11.693-27.356h16.653l-7.559-30.265 21.26 4.423 3.425-23.164L58.331 26.65 67.898 5 79.59 22.228 91.4 5l6.851 19.44 25.039-2.212-9.448 15.25 17.362 6.052-9.803 10.826 23.858 8.963-14.055 11.99 20.197 7.1-15.237 12.69 15.237 16.18-13.347 12.339L154 137.819l-15.945 13.503 13.347 13.038-15.237 13.153"/><path stroke="#37352F" stroke-width="8" d="M24.19 189.481c-8.577-53.869-9.646-161.61 54.694-161.61m54.693 161.494c8.577-53.87 9.647-161.61-54.693-161.61"/><path stroke="#37352F" stroke-width="4" d="M63.443 104.613c.24 2.632 2.946 7.895 11.842 7.895"/><circle cx="59.96" cy="86.734" r="7.198" fill="#37352F"/><ellipse cx="59.844" cy="85.109" fill="#fff" rx="3.599" ry="3.483"/><circle cx="86.198" cy="86.734" r="7.198" fill="#37352F"/><ellipse cx="86.082" cy="85.109" fill="#fff" rx="3.599" ry="3.483"/></svg>
